X: 26243
T: Meet Me On The Dance Floor
R: jig
M: 6/8
K: Eminor
|:D|:ED EGF|EF2 ED2|DEE EGF|EA2 GF2|
DED EGF|EF2 ED2|DAG FGF|DEE EE2|
DED EGF|EF2 ED2|DEE EGF|EA2 GF2|
DED EGF|EF2 EDD|DBA GAG|FEE EE2|
EGE EAE|B,DD GDB,|GEE AEB|AGF EDB,|
GEE GEE|AGD DAD|BEE GEE|ABA FGF|
DGE EAE|B,DD GDB,|GEE AEB|AGF EDB,|
GEE GEE|AGD DAD|BAB GAF|EFD FE2:|

